!!! OTL: Berkowitz529
!!! Chapter: 1
!!! Section: IV
!!! Page: 132
!!! Mode: 
!!! Encoder: DJB
**kern
*staff1
*I"Piano
=1-
*clefF4
*k[f#c#g#d#a#]
*B:
*M4/4
4BB/
4D#\
4F#\
4B\
=2
4An\
4F#\
2Dn\
=3
*M5/4
4F#\
4D#\
4BB/
4C#/
4D#\
=4
*M4/4
2C#/
2F#\
=5
4BB/
4D#\
4F#\
4B\
=6
4c#\
4dn\
4An\
4F#\
=7
*M3/4
4Gn\
2B\
=8
4E\
2Gn\
=9
!!linebreak:original
*M5/4
4An\
4F#\
4Dn\
4E\
4F#\
=10
2D#\
4C#/
2BB/
==
*-
